X:15
T:Spanish Air,A. WCF.015
M:3/4
L:1/8
Q:1/4=160
S:Wm Clarke MS, Feltwell, 1858
O:England
A:Norfolk
Z:transcription by Lyn Law 04/2006
K:G
BcBc|(e2d2)B2|(d2c2)A2|(c2B2)G2|!
G2(Bc)Bc|(e2d2)B2|(d2c2)A2|G2(GB)GB|G2:|!
|:FGFG|(B2A2)F2|(A2G2)E2|(G2F2)D2|D2(FG)FG|!
(B2A2)F2|(A2G2)E2|D2DFDF|D2BcBc|!
(e2d2)B2|(d2c2)A2|(c2B2)G2|G2(Bc)Bc|!
(e2d2)B2|(d2c2)A2|G2(GB)GB|G2|]

